shaders/lut/generated_lut.cube
TITLE "Exported LUT"
LUT_3D_SIZE 5
DOMAIN_MIN 0.000000 0.000000 0.000000
DOMAIN_MAX 0.903226 0.903226 0.903226
0.000000 0.000000 0.080560
0.284083 0.000000 0.132737
0.472486 0.000000 0.151280
0.638386 0.000000 0.181896
0.788065 0.000000 0.207307
0.080560 0.249261 0.080560
0.292020 0.181896 0.080560
0.481156 0.132737 0.080560
0.641432 0.080560 0.080560
0.785689 0.000000 0.080560
0.167429 0.400170 0.080560
0.454547 0.405478 0.080560
0.493821 0.284083 0.080560
0.659353 0.239595 0.080560
0.809079 0.207307 0.080560
0.218708 0.533469 0.080560
0.518046 0.540983 0.080560
0.690773 0.518046 0.080560
0.676709 0.378039 0.080560
0.827222 0.341576 0.080560
0.275870 0.656407 0.080560
0.576811 0.659353 0.080560
0.780910 0.659353 0.080560
0.849251 0.583662 0.080560
0.844901 0.463620 0.080560
0.000000 0.110395 0.218708
0.195098 0.000000 0.218708
0.476845 0.000000 0.292020
0.644460 0.000000 0.314409
0.795144 0.000000 0.341576
0.000000 0.249261 0.181896
0.299707 0.218708 0.207307
0.493821 0.218708 0.239595
0.665199 0.218708 0.267353
0.820475 0.218708 0.292020
0.000000 0.394777 0.151280
0.341576 0.405478 0.207307
0.506108 0.347973 0.207307
0.670983 0.292020 0.207307
0.820475 0.249261 0.207307
0.000000 0.525825 0.110395
0.400170 0.540983 0.207307
0.635323 0.544693 0.207307
0.687988 0.445250 0.207307
0.840523 0.394777 0.207307
0.000000 0.647472 0.080560
0.459110 0.659353 0.207307
0.682376 0.659353 0.207307
0.853576 0.647472 0.218708
0.849251 0.525825 0.207307
0.000000 0.151280 0.307164
0.132737 0.000000 0.307164
0.328330 0.000000 0.314409
0.610149 0.000000 0.394777
0.799821 0.000000 0.435714
0.000000 0.360361 0.321460
0.258497 0.275870 0.321460
0.420922 0.218708 0.321460
0.668099 0.218708 0.378039
0.824981 0.218708 0.400170
0.000000 0.400170 0.249261
0.258497 0.405478 0.284083
0.506108 0.360361 0.292020
0.682376 0.360361 0.328330
0.840523 0.366368 0.354232
0.000000 0.529664 0.218708
0.267353 0.537242 0.249261
0.529664 0.544693 0.299707
0.693545 0.489643 0.299707
0.844901 0.430851 0.299707
0.000000 0.650467 0.195098
0.267353 0.659353 0.229437
0.590417 0.659353 0.299707
0.795144 0.656407 0.299707
0.851417 0.569861 0.299707
0.000000 0.181896 0.389294
0.000000 0.000000 0.383716
0.267353 0.000000 0.389294
0.440513 0.000000 0.389294
0.696304 0.000000 0.468078
0.000000 0.400170 0.400170
0.258497 0.321460 0.400170
0.341576 0.218708 0.400170
0.537242 0.218708 0.400170
0.813660 0.229437 0.481156
0.000000 0.533469 0.389294
0.267353 0.493821 0.410703
0.445250 0.415850 0.410703
0.606913 0.360361 0.410703
0.844901 0.366368 0.459110
0.000000 0.529664 0.307164
0.267353 0.540983 0.347973
0.454547 0.544693 0.378039
0.696304 0.485422 0.372258
0.849251 0.485422 0.410703
0.000000 0.653445 0.284083
0.267353 0.659353 0.321460
0.463620 0.659353 0.335031
0.696304 0.656407 0.372258
0.853576 0.603657 0.372258
0.000000 0.218708 0.463620
0.000000 0.000000 0.449927
0.218708 0.000000 0.454547
0.389294 0.000000 0.459110
0.540983 0.000000 0.463620
0.000000 0.435714 0.476845
0.258497 0.354232 0.476845
0.284083 0.218708 0.472486
0.472486 0.218708 0.476845
0.641432 0.218708 0.481156
0.000000 0.600380 0.489643
0.267353 0.525825 0.489643
0.445250 0.454547 0.489643
0.525825 0.360361 0.485422
0.717918 0.366368 0.489643
0.000000 0.656407 0.440513
0.275870 0.659353 0.481156
0.463620 0.613363 0.489643
0.613363 0.537242 0.489643
0.773674 0.485422 0.489643
0.000000 0.653445 0.360361
0.275870 0.659353 0.400170
0.463620 0.659353 0.425921
0.622888 0.656407 0.449927
0.853576 0.587051 0.440513
