shaders/lut/generated_lut.cube
TITLE "Exported LUT"
LUT_3D_SIZE 32
DOMAIN_MIN 0.0 0.0 0.0
DOMAIN_MAX 1.0 1.0 1.0
0.000000 0.000000 0.080560
0.000000 0.000000 0.080560
0.110395 0.000000 0.110395
0.151280 0.000000 0.110395
0.181896 0.000000 0.110395
0.218708 0.000000 0.110395
0.249261 0.000000 0.132737
0.284083 0.000000 0.132737
0.314409 0.000000 0.132737
0.341576 0.000000 0.132737
0.372258 0.000000 0.132737
0.394777 0.000000 0.151280
0.420922 0.000000 0.151280
0.449927 0.000000 0.151280
0.472486 0.000000 0.151280
0.497957 0.000000 0.167429
0.521953 0.000000 0.167429
0.548374 0.000000 0.167429
0.569861 0.000000 0.167429
0.593760 0.000000 0.181896
0.616558 0.000000 0.181896
0.638386 0.000000 0.181896
0.662284 0.000000 0.181896
0.682376 0.000000 0.195098
0.704503 0.000000 0.195098
0.725825 0.000000 0.195098
0.746421 0.000000 0.195098
0.768805 0.000000 0.207307
0.788065 0.000000 0.207307
0.809079 0.000000 0.207307
0.829457 0.000000 0.207307
0.851417 0.000000 0.218708
0.000000 0.080560 0.080560
0.000000 0.000000 0.080560
0.110395 0.000000 0.080560
0.151280 0.000000 0.080560
0.181896 0.000000 0.080560
0.218708 0.000000 0.080560
0.249261 0.000000 0.110395
0.284083 0.000000 0.110395
0.314409 0.000000 0.110395
0.341576 0.000000 0.110395
0.372258 0.000000 0.110395
0.394777 0.000000 0.110395
0.420922 0.000000 0.132737
0.449927 0.000000 0.132737
0.472486 0.000000 0.132737
0.497957 0.000000 0.132737
0.521953 0.000000 0.132737
0.544693 0.000000 0.151280
0.569861 0.000000 0.151280
0.593760 0.000000 0.151280
0.616558 0.000000 0.151280
0.638386 0.000000 0.151280
0.659353 0.000000 0.167429
0.682376 0.000000 0.167429
0.704503 0.000000 0.167429
0.725825 0.000000 0.167429
0.746421 0.000000 0.167429
0.766357 0.000000 0.181896
0.788065 0.000000 0.181896
0.809079 0.000000 0.181896
0.829457 0.000000 0.181896
0.849251 0.000000 0.195098
0.000000 0.110395 0.080560
0.080560 0.110395 0.080560
0.110395 0.080560 0.080560
0.151280 0.080560 0.080560
0.181896 0.000000 0.080560
0.218708 0.000000 0.080560
0.249261 0.000000 0.080560
0.284083 0.000000 0.080560
0.314409 0.000000 0.080560
0.341576 0.000000 0.080560
0.366368 0.000000 0.080560
0.394777 0.000000 0.110395
0.420922 0.000000 0.110395
0.449927 0.000000 0.110395
0.472486 0.000000 0.110395
0.497957 0.000000 0.110395
0.521953 0.000000 0.110395
0.544693 0.000000 0.110395
0.569861 0.000000 0.132737
0.590417 0.000000 0.132737
0.613363 0.000000 0.132737
0.638386 0.000000 0.132737
0.659353 0.000000 0.132737
0.682376 0.000000 0.132737
0.701783 0.000000 0.151280
0.723201 0.000000 0.151280
0.746421 0.000000 0.151280
0.766357 0.000000 0.151280
0.788065 0.000000 0.151280
0.806776 0.000000 0.167429
0.827222 0.000000 0.167429
0.849251 0.000000 0.167429
0.000000 0.151280 0.080560
0.110395 0.151280 0.080560
0.151280 0.151280 0.080560
0.151280 0.110395 0.080560
0.181896 0.110395 0.080560
0.218708 0.080560 0.080560
0.258497 0.080560 0.080560
0.284083 0.080560 0.080560
0.314409 0.000000 0.080560
0.341576 0.000000 0.080560
0.372258 0.000000 0.080560
0.394777 0.000000 0.080560
0.420922 0.000000 0.080560
0.445250 0.000000 0.080560
0.472486 0.000000 0.080560
0.497957 0.000000 0.080560
0.521953 0.000000 0.080560
0.544693 0.000000 0.110395
0.569861 0.000000 0.110395
0.590417 0.000000 0.110395
0.613363 0.000000 0.110395
0.635323 0.000000 0.110395
0.659353 0.000000 0.110395
0.679549 0.000000 0.110395
0.701783 0.000000 0.132737
0.723201 0.000000 0.132737
0.743884 0.000000 0.132737
0.766357 0.000000 0.132737
0.785689 0.000000 0.132737
0.806776 0.000000 0.132737
0.827222 0.000000 0.151280
0.847079 0.000000 0.151280
0.000000 0.167429 0.080560
0.110395 0.167429 0.080560
0.167429 0.181896 0.080560
0.195098 0.167429 0.080560
0.195098 0.132737 0.080560
0.218708 0.110395 0.080560
0.258497 0.110395 0.080560
0.284083 0.110395 0.080560
0.314409 0.080560 0.080560
0.347973 0.080560 0.080560
0.372258 0.080560 0.080560
0.400170 0.080560 0.080560
0.425921 0.000000 0.080560
0.449927 0.000000 0.080560
0.472486 0.000000 0.080560
0.497957 0.000000 0.080560
0.521953 0.000000 0.080560
0.544693 0.000000 0.080560
0.566348 0.000000 0.080560
0.590417 0.000000 0.080560
0.613363 0.000000 0.080560
0.635323 0.000000 0.080560
0.659353 0.000000 0.110395
0.679549 0.000000 0.110395
0.701783 0.000000 0.110395
0.723201 0.000000 0.110395
0.743884 0.000000 0.110395
0.763899 0.000000 0.110395
0.785689 0.000000 0.110395
0.806776 0.000000 0.110395
0.827222 0.000000 0.132737
0.847079 0.000000 0.132737
0.080560 0.195098 0.080560
0.132737 0.195098 0.080560
0.181896 0.207307 0.080560
0.218708 0.207307 0.080560
0.229437 0.181896 0.080560
0.229437 0.151280 0.080560
0.258497 0.132737 0.080560
0.292020 0.132737 0.080560
0.321460 0.110395 0.080560
0.347973 0.110395 0.080560
0.372258 0.110395 0.080560
0.400170 0.080560 0.080560
0.425921 0.080560 0.080560
0.449927 0.080560 0.080560
0.476845 0.080560 0.080560
0.502052 0.080560 0.080560
0.525825 0.000000 0.080560
0.548374 0.000000 0.080560
0.569861 0.000000 0.080560
0.593760 0.000000 0.080560
0.613363 0.000000 0.080560
0.635323 0.000000 0.080560
0.656407 0.000000 0.080560
0.679549 0.000000 0.080560
0.701783 0.000000 0.080560
0.723201 0.000000 0.080560
0.743884 0.000000 0.080560
0.763899 0.000000 0.110395
0.785689 0.000000 0.110395
0.804466 0.000000 0.110395
0.824981 0.000000 0.110395
0.844901 0.000000 0.110395
0.080560 0.229437 0.080560
0.132737 0.229437 0.080560
0.181896 0.229437 0.080560
0.229437 0.229437 0.080560
0.258497 0.218708 0.080560
0.258497 0.195098 0.080560
0.258497 0.167429 0.080560
0.292020 0.151280 0.080560
0.321460 0.151280 0.080560
0.347973 0.132737 0.080560
0.378039 0.132737 0.080560
0.405478 0.132737 0.080560
0.430851 0.110395 0.080560
0.454547 0.110395 0.080560
0.481156 0.110395 0.080560
0.502052 0.080560 0.080560
0.525825 0.080560 0.080560
0.548374 0.080560 0.080560
0.573349 0.080560 0.080560
0.593760 0.080560 0.080560
0.616558 0.000000 0.080560
0.638386 0.000000 0.080560
0.659353 0.000000 0.080560
0.682376 0.000000 0.080560
0.701783 0.000000 0.080560
0.723201 0.000000 0.080560
0.743884 0.000000 0.080560
0.763899 0.000000 0.080560
0.783303 0.000000 0.080560
0.804466 0.000000 0.080560
0.824981 0.000000 0.080560
0.844901 0.000000 0.080560
0.080560 0.249261 0.080560
0.151280 0.249261 0.080560
0.195098 0.249261 0.080560
0.239595 0.249261 0.080560
0.284083 0.249261 0.080560
0.292020 0.239595 0.080560
0.292020 0.207307 0.080560
0.292020 0.181896 0.080560
0.321460 0.167429 0.080560
0.347973 0.167429 0.080560
0.378039 0.151280 0.080560
0.405478 0.151280 0.080560
0.430851 0.151280 0.080560
0.454547 0.132737 0.080560
0.481156 0.132737 0.080560
0.506108 0.110395 0.080560
0.529664 0.110395 0.080560
0.552025 0.110395 0.080560
0.576811 0.110395 0.080560
0.597081 0.080560 0.080560
0.619733 0.080560 0.080560
0.641432 0.080560 0.080560
0.662284 0.080560 0.080560
0.685189 0.080560 0.080560
0.704503 0.080560 0.080560
0.725825 0.000000 0.080560
0.746421 0.000000 0.080560
0.766357 0.000000 0.080560
0.785689 0.000000 0.080560
0.806776 0.000000 0.080560
0.824981 0.000000 0.080560
0.844901 0.000000 0.080560
0.110395 0.275870 0.080560
0.167429 0.275870 0.080560
0.207307 0.275870 0.080560
0.249261 0.275870 0.080560
0.292020 0.275870 0.080560
0.328330 0.275870 0.080560
0.328330 0.249261 0.080560
0.328330 0.218708 0.080560
0.321460 0.195098 0.080560
0.354232 0.195098 0.080560
0.378039 0.181896 0.080560
0.405478 0.181896 0.080560
0.430851 0.167429 0.080560
0.459110 0.167429 0.080560
0.485422 0.151280 0.080560
0.506108 0.151280 0.080560
0.533469 0.132737 0.080560
0.555647 0.132737 0.080560
0.576811 0.132737 0.080560
0.600380 0.110395 0.080560
0.622888 0.110395 0.080560
0.644460 0.110395 0.080560
0.665199 0.110395 0.080560
0.687988 0.080560 0.080560
0.709905 0.080560 0.080560
0.728438 0.080560 0.080560
0.748948 0.080560 0.080560
0.771244 0.080560 0.080560
0.790433 0.080560 0.080560
0.809079 0.000000 0.080560
0.829457 0.000000 0.080560
0.849251 0.000000 0.080560
0.110395 0.292020 0.080560
0.167429 0.299707 0.080560
0.218708 0.299707 0.080560
0.258497 0.299707 0.080560
0.299707 0.299707 0.080560
0.341576 0.299707 0.080560
0.360361 0.292020 0.080560
0.360361 0.258497 0.080560
0.354232 0.239595 0.080560
0.354232 0.218708 0.080560
0.383716 0.207307 0.080560
0.410703 0.195098 0.080560
0.435714 0.195098 0.080560
0.459110 0.181896 0.080560
0.485422 0.181896 0.080560
0.510125 0.167429 0.080560
0.533469 0.167429 0.080560
0.559241 0.151280 0.080560
0.580248 0.151280 0.080560
0.603657 0.151280 0.080560
0.626025 0.132737 0.080560
0.647472 0.132737 0.080560
0.668099 0.132737 0.080560
0.690773 0.110395 0.080560
0.712588 0.110395 0.080560
0.733630 0.110395 0.080560
0.753971 0.110395 0.080560
0.773674 0.110395 0.080560
0.792793 0.080560 0.080560
0.813660 0.080560 0.080560
0.833905 0.080560 0.080560
0.851417 0.080560 0.080560
0.110395 0.314409 0.080560
0.181896 0.321460 0.080560
0.229437 0.321460 0.080560
0.267353 0.321460 0.080560
0.314409 0.321460 0.080560
0.347973 0.321460 0.080560
0.383716 0.321460 0.080560
0.389294 0.299707 0.080560
0.389294 0.275870 0.080560
0.383716 0.249261 0.080560
0.383716 0.229437 0.080560
0.410703 0.218708 0.080560
0.435714 0.218708 0.080560
0.463620 0.207307 0.080560
0.489643 0.195098 0.080560
0.514104 0.195098 0.080560
0.537242 0.181896 0.080560
0.559241 0.181896 0.080560
0.583662 0.181896 0.080560
0.606913 0.167429 0.080560
0.629142 0.167429 0.080560
0.650467 0.151280 0.080560
0.670983 0.151280 0.080560
0.693545 0.151280 0.080560
0.715259 0.132737 0.080560
0.736210 0.132737 0.080560
0.756468 0.132737 0.080560
0.776095 0.110395 0.080560
0.797487 0.110395 0.080560
0.815939 0.110395 0.080560
0.836118 0.110395 0.080560
0.855728 0.110395 0.080560
0.132737 0.335031 0.080560
0.195098 0.341576 0.080560
0.239595 0.341576 0.080560
0.284083 0.341576 0.080560
0.321460 0.341576 0.080560
0.360361 0.341576 0.080560
0.394777 0.341576 0.080560
0.420922 0.341576 0.080560
0.415850 0.314409 0.080560
0.415850 0.292020 0.080560
0.415850 0.267353 0.080560
0.410703 0.249261 0.080560
0.440513 0.239595 0.080560
0.463620 0.229437 0.080560
0.489643 0.218708 0.080560
0.514104 0.218708 0.080560
0.537242 0.207307 0.080560
0.562808 0.207307 0.080560
0.587051 0.195098 0.080560
0.606913 0.195098 0.080560
0.632242 0.181896 0.080560
0.653445 0.181896 0.080560
0.673853 0.167429 0.080560
0.696304 0.167429 0.080560
0.717918 0.167429 0.080560
0.738778 0.151280 0.080560
0.758955 0.151280 0.080560
0.778507 0.151280 0.080560
0.799821 0.132737 0.080560
0.820475 0.132737 0.080560
0.840523 0.132737 0.080560
0.860013 0.132737 0.080560
0.132737 0.360361 0.080560
0.195098 0.360361 0.080560
0.249261 0.360361 0.080560
0.292020 0.360361 0.080560
0.328330 0.360361 0.080560
0.366368 0.366368 0.080560
0.405478 0.366368 0.080560
0.435714 0.366368 0.080560
0.449927 0.347973 0.080560
0.445250 0.328330 0.080560
0.445250 0.299707 0.080560
0.440513 0.284083 0.080560
0.440513 0.258497 0.080560
0.468078 0.249261 0.080560
0.493821 0.249261 0.080560
0.518046 0.239595 0.080560
0.540983 0.229437 0.080560
0.566348 0.229437 0.080560
0.587051 0.218708 0.080560
0.610149 0.218708 0.080560
0.632242 0.207307 0.080560
0.656407 0.207307 0.080560
0.676709 0.195098 0.080560
0.699050 0.195098 0.080560
0.720565 0.181896 0.080560
0.741337 0.181896 0.080560
0.761432 0.167429 0.080560
0.783303 0.167429 0.080560
0.802148 0.167429 0.080560
0.822732 0.151280 0.080560
0.842715 0.151280 0.080560
0.862146 0.151280 0.080560
0.151280 0.378039 0.080560
0.207307 0.378039 0.080560
0.258497 0.383716 0.080560
0.299707 0.383716 0.080560
0.341576 0.383716 0.080560
0.378039 0.383716 0.080560
0.410703 0.383716 0.080560
0.445250 0.383716 0.080560
0.476845 0.383716 0.080560
0.476845 0.360361 0.080560
0.472486 0.341576 0.080560
0.472486 0.314409 0.080560
0.472486 0.292020 0.080560
0.468078 0.275870 0.080560
0.493821 0.267353 0.080560
0.518046 0.258497 0.080560
0.544693 0.249261 0.080560
0.566348 0.249261 0.080560
0.590417 0.239595 0.080560
0.613363 0.229437 0.080560
0.635323 0.229437 0.080560
0.659353 0.218708 0.080560
0.679549 0.218708 0.080560
0.701783 0.207307 0.080560
0.723201 0.207307 0.080560
0.743884 0.195098 0.080560
0.763899 0.195098 0.080560
0.785689 0.195098 0.080560
0.806776 0.181896 0.080560
0.824981 0.181896 0.080560
0.844901 0.167429 0.080560
0.866393 0.167429 0.080560
0.167429 0.400170 0.080560
0.218708 0.400170 0.080560
0.267353 0.400170 0.080560
0.307164 0.405478 0.080560
0.347973 0.405478 0.080560
0.383716 0.405478 0.080560
0.420922 0.405478 0.080560
0.454547 0.405478 0.080560
0.489643 0.405478 0.080560
0.506108 0.394777 0.080560
0.502052 0.372258 0.080560
0.502052 0.354232 0.080560
0.497957 0.328330 0.080560
0.497957 0.307164 0.080560
0.493821 0.284083 0.080560
0.521953 0.284083 0.080560
0.544693 0.275870 0.080560
0.569861 0.267353 0.080560
0.593760 0.258497 0.080560
0.616558 0.258497 0.080560
0.638386 0.249261 0.080560
0.659353 0.239595 0.080560
0.682376 0.239595 0.080560
0.704503 0.229437 0.080560
0.725825 0.229437 0.080560
0.746421 0.218708 0.080560
0.768805 0.218708 0.080560
0.788065 0.207307 0.080560
0.809079 0.207307 0.080560
0.829457 0.195098 0.080560
0.849251 0.195098 0.080560
0.868507 0.181896 0.080560
0.167429 0.420922 0.080560
0.229437 0.420922 0.080560
0.275870 0.420922 0.080560
0.314409 0.420922 0.080560
0.354232 0.425921 0.080560
0.394777 0.425921 0.080560
0.430851 0.425921 0.080560
0.463620 0.425921 0.080560
0.497957 0.425921 0.080560
0.529664 0.430851 0.080560
0.533469 0.410703 0.080560
0.529664 0.383716 0.080560
0.529664 0.366368 0.080560
0.525825 0.341576 0.080560
0.525825 0.321460 0.080560
0.521953 0.299707 0.080560
0.548374 0.292020 0.080560
0.569861 0.284083 0.080560
0.593760 0.284083 0.080560
0.616558 0.275870 0.080560
0.641432 0.267353 0.080560
0.662284 0.267353 0.080560
0.685189 0.258497 0.080560
0.707210 0.249261 0.080560
0.728438 0.249261 0.080560
0.748948 0.239595 0.080560
0.771244 0.239595 0.080560
0.790433 0.229437 0.080560
0.811373 0.229437 0.080560
0.831684 0.218708 0.080560
0.851417 0.218708 0.080560
0.872717 0.207307 0.080560
0.181896 0.440513 0.080560
0.229437 0.440513 0.080560
0.284083 0.440513 0.080560
0.328330 0.440513 0.080560
0.366368 0.445250 0.080560
0.405478 0.445250 0.080560
0.440513 0.445250 0.080560
0.472486 0.445250 0.080560
0.506108 0.449927 0.080560
0.537242 0.449927 0.080560
0.562808 0.445250 0.080560
0.559241 0.420922 0.080560
0.555647 0.400170 0.080560
0.555647 0.378039 0.080560
0.552025 0.354232 0.080560
0.552025 0.335031 0.080560
0.548374 0.314409 0.080560
0.573349 0.307164 0.080560
0.597081 0.299707 0.080560
0.619733 0.292020 0.080560
0.641432 0.292020 0.080560
0.665199 0.284083 0.080560
0.687988 0.275870 0.080560
0.709905 0.275870 0.080560
0.731040 0.267353 0.080560
0.751465 0.258497 0.080560
0.773674 0.258497 0.080560
0.792793 0.249261 0.080560
0.813660 0.249261 0.080560
0.833905 0.239595 0.080560
0.855728 0.229437 0.080560
0.874813 0.229437 0.080560
0.181896 0.459110 0.080560
0.239595 0.459110 0.080560
0.292020 0.459110 0.080560
0.335031 0.463620 0.080560
0.372258 0.463620 0.080560
0.410703 0.463620 0.080560
0.449927 0.463620 0.080560
0.481156 0.468078 0.080560
0.518046 0.468078 0.080560
0.548374 0.468078 0.080560
0.580248 0.468078 0.080560
0.587051 0.454547 0.080560
0.587051 0.430851 0.080560
0.583662 0.410703 0.080560
0.580248 0.389294 0.080560
0.580248 0.366368 0.080560
0.576811 0.347973 0.080560
0.573349 0.328330 0.080560
0.600380 0.321460 0.080560
0.622888 0.314409 0.080560
0.644460 0.307164 0.080560
0.668099 0.299707 0.080560
0.690773 0.299707 0.080560
0.712588 0.292020 0.080560
0.733630 0.284083 0.080560
0.753971 0.284083 0.080560
0.776095 0.275870 0.080560
0.797487 0.267353 0.080560
0.818211 0.267353 0.080560
0.838324 0.258497 0.080560
0.857874 0.249261 0.080560
0.876903 0.249261 0.080560
0.195098 0.476845 0.080560
0.249261 0.476845 0.080560
0.299707 0.481156 0.080560
0.341576 0.481156 0.080560
0.383716 0.481156 0.080560
0.420922 0.485422 0.080560
0.459110 0.485422 0.080560
0.493821 0.485422 0.080560
0.525825 0.485422 0.080560
0.555647 0.485422 0.080560
0.587051 0.489643 0.080560
0.616558 0.485422 0.080560
0.613363 0.463620 0.080560
0.610149 0.440513 0.080560
0.610149 0.420922 0.080560
0.606913 0.400170 0.080560
0.603657 0.378039 0.080560
0.603657 0.360361 0.080560
0.600380 0.341576 0.080560
0.622888 0.335031 0.080560
0.647472 0.328330 0.080560
0.670983 0.321460 0.080560
0.690773 0.314409 0.080560
0.715259 0.314409 0.080560
0.736210 0.307164 0.080560
0.756468 0.299707 0.080560
0.778507 0.292020 0.080560
0.799821 0.292020 0.080560
0.820475 0.284083 0.080560
0.840523 0.275870 0.080560
0.860013 0.275870 0.080560
0.881065 0.267353 0.080560
0.207307 0.493821 0.080560
0.258497 0.497957 0.080560
0.307164 0.497957 0.080560
0.354232 0.502052 0.080560
0.389294 0.502052 0.080560
0.430851 0.502052 0.080560
0.468078 0.502052 0.080560
0.502052 0.506108 0.080560
0.533469 0.506108 0.080560
0.566348 0.506108 0.080560
0.597081 0.506108 0.080560
0.629142 0.510125 0.080560
0.641432 0.497957 0.080560
0.638386 0.476845 0.080560
0.638386 0.454547 0.080560
0.635323 0.430851 0.080560
0.632242 0.410703 0.080560
0.629142 0.394777 0.080560
0.629142 0.372258 0.080560
0.626025 0.354232 0.080560
0.650467 0.347973 0.080560
0.670983 0.341576 0.080560
0.693545 0.335031 0.080560
0.715259 0.328330 0.080560
0.738778 0.321460 0.080560
0.758955 0.321460 0.080560
0.780910 0.314409 0.080560
0.802148 0.307164 0.080560
0.822732 0.299707 0.080560
0.842715 0.299707 0.080560
0.862146 0.292020 0.080560
0.883137 0.284083 0.080560
0.207307 0.514104 0.080560
0.267353 0.514104 0.080560
0.314409 0.518046 0.080560
0.360361 0.518046 0.080560
0.400170 0.521953 0.080560
0.440513 0.521953 0.080560
0.476845 0.521953 0.080560
0.510125 0.521953 0.080560
0.540983 0.525825 0.080560
0.573349 0.525825 0.080560
0.606913 0.525825 0.080560
0.635323 0.525825 0.080560
0.665199 0.529664 0.080560
0.668099 0.506108 0.080560
0.665199 0.485422 0.080560
0.662284 0.463620 0.080560
0.659353 0.445250 0.080560
0.656407 0.425921 0.080560
0.656407 0.405478 0.080560
0.653445 0.383716 0.080560
0.650467 0.366368 0.080560
0.673853 0.360361 0.080560
0.696304 0.354232 0.080560
0.717918 0.347973 0.080560
0.741337 0.341576 0.080560
0.761432 0.335031 0.080560
0.783303 0.335031 0.080560
0.804466 0.328330 0.080560
0.824981 0.321460 0.080560
0.844901 0.314409 0.080560
0.866393 0.314409 0.080560
0.885203 0.307164 0.080560
0.218708 0.533469 0.080560
0.275870 0.533469 0.080560
0.321460 0.537242 0.080560
0.366368 0.537242 0.080560
0.410703 0.537242 0.080560
0.445250 0.540983 0.080560
0.481156 0.540983 0.080560
0.518046 0.540983 0.080560
0.552025 0.544693 0.080560
0.583662 0.544693 0.080560
0.616558 0.544693 0.080560
0.644460 0.544693 0.080560
0.673853 0.544693 0.080560
0.693545 0.540983 0.080560
0.690773 0.518046 0.080560
0.690773 0.497957 0.080560
0.687988 0.476845 0.080560
0.685189 0.454547 0.080560
0.682376 0.435714 0.080560
0.679549 0.415850 0.080560
0.679549 0.400170 0.080560
0.676709 0.378039 0.080560
0.699050 0.372258 0.080560
0.720565 0.366368 0.080560
0.743884 0.360361 0.080560
0.763899 0.354232 0.080560
0.785689 0.347973 0.080560
0.806776 0.347973 0.080560
0.827222 0.341576 0.080560
0.849251 0.335031 0.080560
0.868507 0.328330 0.080560
0.889318 0.321460 0.080560
0.229437 0.552025 0.080560
0.284083 0.552025 0.080560
0.335031 0.555647 0.080560
0.378039 0.555647 0.080560
0.415850 0.555647 0.080560
0.454547 0.559241 0.080560
0.489643 0.559241 0.080560
0.525825 0.559241 0.080560
0.559241 0.562808 0.080560
0.593760 0.562808 0.080560
0.622888 0.562808 0.080560
0.653445 0.562808 0.080560
0.682376 0.562808 0.080560
0.709905 0.562808 0.080560
0.717918 0.548374 0.080560
0.715259 0.529664 0.080560
0.715259 0.510125 0.080560
0.712588 0.489643 0.080560
0.709905 0.468078 0.080560
0.707210 0.449927 0.080560
0.704503 0.430851 0.080560
0.701783 0.410703 0.080560
0.701783 0.389294 0.080560
0.723201 0.383716 0.080560
0.743884 0.378039 0.080560
0.766357 0.372258 0.080560
0.788065 0.366368 0.080560
0.809079 0.366368 0.080560
0.829457 0.360361 0.080560
0.851417 0.354232 0.080560
0.870615 0.347973 0.080560
0.891368 0.341576 0.080560
0.239595 0.569861 0.080560
0.292020 0.569861 0.080560
0.341576 0.573349 0.080560
0.383716 0.573349 0.080560
0.425921 0.576811 0.080560
0.463620 0.576811 0.080560
0.502052 0.576811 0.080560
0.533469 0.580248 0.080560
0.569861 0.580248 0.080560
0.600380 0.580248 0.080560
0.632242 0.580248 0.080560
0.662284 0.580248 0.080560
0.690773 0.580248 0.080560
0.717918 0.580248 0.080560
0.741337 0.576811 0.080560
0.741337 0.555647 0.080560
0.738778 0.537242 0.080560
0.738778 0.518046 0.080560
0.736210 0.497957 0.080560
0.733630 0.481156 0.080560
0.731040 0.459110 0.080560
0.731040 0.440513 0.080560
0.728438 0.420922 0.080560
0.725825 0.405478 0.080560
0.746421 0.400170 0.080560
0.768805 0.394777 0.080560
0.790433 0.389294 0.080560
0.811373 0.383716 0.080560
0.831684 0.378039 0.080560
0.853576 0.372258 0.080560
0.874813 0.366368 0.080560
0.893411 0.360361 0.080560
0.239595 0.587051 0.080560
0.299707 0.590417 0.080560
0.347973 0.590417 0.080560
0.394777 0.590417 0.080560
0.435714 0.593760 0.080560
0.472486 0.593760 0.080560
0.510125 0.597081 0.080560
0.544693 0.597081 0.080560
0.576811 0.597081 0.080560
0.610149 0.597081 0.080560
0.638386 0.597081 0.080560
0.668099 0.597081 0.080560
0.699050 0.597081 0.080560
0.725825 0.597081 0.080560
0.753971 0.597081 0.080560
0.763899 0.583662 0.080560
0.763899 0.566348 0.080560
0.761432 0.548374 0.080560
0.761432 0.529664 0.080560
0.761432 0.510125 0.080560
0.758955 0.489643 0.080560
0.756468 0.472486 0.080560
0.753971 0.454547 0.080560
0.751465 0.435714 0.080560
0.748948 0.415850 0.080560
0.771244 0.410703 0.080560
0.792793 0.405478 0.080560
0.813660 0.400170 0.080560
0.836118 0.394777 0.080560
0.855728 0.389294 0.080560
0.876903 0.383716 0.080560
0.897481 0.378039 0.080560
0.249261 0.603657 0.080560
0.307164 0.606913 0.080560
0.354232 0.606913 0.080560
0.400170 0.610149 0.080560
0.440513 0.610149 0.080560
0.481156 0.613363 0.080560
0.518046 0.613363 0.080560
0.552025 0.613363 0.080560
0.583662 0.613363 0.080560
0.616558 0.613363 0.080560
0.647472 0.613363 0.080560
0.676709 0.613363 0.080560
0.704503 0.613363 0.080560
0.733630 0.613363 0.080560
0.761432 0.613363 0.080560
0.788065 0.613363 0.080560
0.785689 0.593760 0.080560
0.785689 0.573349 0.080560
0.785689 0.555647 0.080560
0.783303 0.537242 0.080560
0.783303 0.518046 0.080560
0.780910 0.502052 0.080560
0.780910 0.485422 0.080560
0.778507 0.463620 0.080560
0.776095 0.445250 0.080560
0.773674 0.430851 0.080560
0.795144 0.420922 0.080560
0.815939 0.415850 0.080560
0.838324 0.410703 0.080560
0.857874 0.405478 0.080560
0.878987 0.400170 0.080560
0.899508 0.394777 0.080560
0.258497 0.622888 0.080560
0.314409 0.622888 0.080560
0.366368 0.626025 0.080560
0.410703 0.626025 0.080560
0.449927 0.629142 0.080560
0.489643 0.629142 0.080560
0.525825 0.629142 0.080560
0.559241 0.629142 0.080560
0.593760 0.629142 0.080560
0.622888 0.629142 0.080560
0.653445 0.629142 0.080560
0.685189 0.629142 0.080560
0.712588 0.629142 0.080560
0.741337 0.629142 0.080560
0.768805 0.629142 0.080560
0.795144 0.629142 0.080560
0.809079 0.619733 0.080560
0.809079 0.600380 0.080560
0.806776 0.583662 0.080560
0.806776 0.566348 0.080560
0.806776 0.548374 0.080560
0.804466 0.529664 0.080560
0.804466 0.510125 0.080560
0.804466 0.493821 0.080560
0.802148 0.476845 0.080560
0.799821 0.459110 0.080560
0.797487 0.440513 0.080560
0.818211 0.435714 0.080560
0.840523 0.430851 0.080560
0.860013 0.425921 0.080560
0.881065 0.420922 0.080560
0.901530 0.415850 0.080560
0.267353 0.638386 0.080560
0.321460 0.641432 0.080560
0.372258 0.644460 0.080560
0.415850 0.644460 0.080560
0.459110 0.644460 0.080560
0.497957 0.644460 0.080560
0.533469 0.644460 0.080560
0.566348 0.644460 0.080560
0.600380 0.644460 0.080560
0.632242 0.644460 0.080560
0.662284 0.644460 0.080560
0.690773 0.644460 0.080560
0.720565 0.644460 0.080560
0.748948 0.644460 0.080560
0.773674 0.644460 0.080560
0.799821 0.644460 0.080560
0.827222 0.641432 0.080560
0.829457 0.629142 0.080560
0.829457 0.610149 0.080560
0.829457 0.590417 0.080560
0.827222 0.573349 0.080560
