shaders/lut/generated_lut.cube
TITLE "Exported LUT"
LUT_3D_SIZE 8
DOMAIN_MIN 0.000000 0.000000 0.000000
DOMAIN_MAX 0.903226 0.903226 0.903226
0.000000 0.000000 0.080560
0.181896 0.000000 0.110395
0.314409 0.000000 0.132737
0.420922 0.000000 0.151280
0.521953 0.000000 0.167429
0.616558 0.000000 0.181896
0.704503 0.000000 0.195098
0.788065 0.000000 0.207307
0.000000 0.167429 0.080560
0.195098 0.132737 0.080560
0.314409 0.080560 0.080560
0.425921 0.000000 0.080560
0.521953 0.000000 0.080560
0.613363 0.000000 0.080560
0.701783 0.000000 0.110395
0.785689 0.000000 0.110395
0.110395 0.275870 0.080560
0.292020 0.275870 0.080560
0.321460 0.195098 0.080560
0.430851 0.167429 0.080560
0.533469 0.132737 0.080560
0.622888 0.110395 0.080560
0.709905 0.080560 0.080560
0.790433 0.080560 0.080560
0.132737 0.360361 0.080560
0.328330 0.360361 0.080560
0.449927 0.347973 0.080560
0.440513 0.258497 0.080560
0.540983 0.229437 0.080560
0.632242 0.207307 0.080560
0.720565 0.181896 0.080560
0.802148 0.167429 0.080560
0.181896 0.440513 0.080560
0.366368 0.445250 0.080560
0.506108 0.449927 0.080560
0.555647 0.400170 0.080560
0.548374 0.314409 0.080560
0.641432 0.292020 0.080560
0.731040 0.267353 0.080560
0.813660 0.249261 0.080560
0.207307 0.514104 0.080560
0.400170 0.521953 0.080560
0.540983 0.525825 0.080560
0.665199 0.529664 0.080560
0.659353 0.445250 0.080560
0.650467 0.366368 0.080560
0.741337 0.341576 0.080560
0.824981 0.321460 0.080560
0.239595 0.587051 0.080560
0.435714 0.593760 0.080560
0.576811 0.597081 0.080560
0.699050 0.597081 0.080560
0.763899 0.566348 0.080560
0.758955 0.489643 0.080560
0.748948 0.415850 0.080560
0.836118 0.394777 0.080560
0.275870 0.656407 0.080560
0.468078 0.659353 0.080560
0.606913 0.659353 0.080560
0.728438 0.659353 0.080560
0.833905 0.659353 0.080560
0.849251 0.600380 0.080560
0.847079 0.533469 0.080560
0.844901 0.463620 0.080560
0.000000 0.080560 0.167429
0.132737 0.000000 0.167429
0.314409 0.000000 0.218708
0.425921 0.000000 0.229437
0.525825 0.000000 0.249261
0.619733 0.000000 0.267353
0.707210 0.000000 0.275870
0.792793 0.000000 0.292020
0.000000 0.167429 0.151280
0.195098 0.151280 0.167429
0.321460 0.151280 0.181896
0.435714 0.151280 0.207307
0.537242 0.151280 0.218708
0.632242 0.151280 0.229437
0.723201 0.151280 0.249261
0.809079 0.151280 0.258497
0.000000 0.267353 0.132737
0.218708 0.275870 0.167429
0.328330 0.239595 0.167429
0.435714 0.195098 0.167429
0.537242 0.167429 0.167429
0.629142 0.151280 0.167429
0.720565 0.151280 0.181896
0.806776 0.151280 0.195098
0.000000 0.354232 0.110395
0.258497 0.360361 0.167429
0.410703 0.366368 0.167429
0.445250 0.299707 0.167429
0.544693 0.267353 0.167429
0.638386 0.239595 0.167429
0.725825 0.218708 0.151280
0.809079 0.195098 0.151280
0.000000 0.435714 0.080560
0.292020 0.445250 0.167429
0.440513 0.445250 0.167429
0.562808 0.445250 0.167429
0.555647 0.354232 0.167429
0.650467 0.328330 0.167429
0.738778 0.299707 0.167429
0.822732 0.275870 0.167429
0.000000 0.510125 0.080560
0.328330 0.518046 0.167429
0.476845 0.525825 0.167429
0.606913 0.529664 0.167429
0.668099 0.489643 0.167429
0.659353 0.405478 0.167429
0.748948 0.383716 0.167429
0.833905 0.354232 0.167429
0.000000 0.580248 0.080560
0.360361 0.593760 0.167429
0.510125 0.597081 0.167429
0.635323 0.597081 0.167429
0.748948 0.597081 0.167429
0.761432 0.533469 0.167429
0.756468 0.459110 0.167429
0.842715 0.435714 0.167429
0.080560 0.650467 0.080560
0.394777 0.659353 0.167429
0.540983 0.659353 0.167429
0.665199 0.659353 0.167429
0.776095 0.659353 0.167429
0.853576 0.641432 0.167429
0.849251 0.573349 0.167429
0.847079 0.502052 0.167429
0.000000 0.110395 0.229437
0.080560 0.000000 0.229437
0.218708 0.000000 0.229437
0.405478 0.000000 0.284083
0.529664 0.000000 0.314409
0.622888 0.000000 0.328330
0.709905 0.000000 0.341576
0.795144 0.000000 0.354232
0.000000 0.249261 0.239595
0.151280 0.195098 0.239595
0.267353 0.151280 0.239595
0.435714 0.151280 0.275870
0.537242 0.151280 0.284083
0.635323 0.151280 0.299707
0.725825 0.151280 0.314409
0.811373 0.151280 0.328330
0.000000 0.275870 0.195098
0.167429 0.275870 0.218708
0.328330 0.239595 0.218708
0.445250 0.239595 0.239595
0.548374 0.239595 0.258497
0.644460 0.239595 0.275870
0.736210 0.239595 0.284083
0.822732 0.249261 0.299707
0.000000 0.360361 0.167429
0.167429 0.360361 0.195098
0.341576 0.366368 0.218708
0.449927 0.328330 0.218708
0.548374 0.284083 0.218708
0.644460 0.258497 0.218708
0.733630 0.239595 0.229437
0.820475 0.239595 0.239595
0.000000 0.435714 0.151280
0.167429 0.440513 0.167429
0.378039 0.445250 0.218708
0.521953 0.449927 0.218708
0.559241 0.383716 0.218708
0.653445 0.347973 0.218708
0.743884 0.321460 0.218708
0.827222 0.299707 0.218708
0.000000 0.510125 0.132737
0.181896 0.514104 0.167429
0.410703 0.521953 0.218708
0.552025 0.529664 0.218708
0.670983 0.525825 0.218708
0.662284 0.440513 0.218708
0.753971 0.410703 0.218708
0.838324 0.383716 0.218708
0.000000 0.580248 0.132737
0.207307 0.587051 0.167429
0.445250 0.597081 0.218708
0.580248 0.597081 0.218708
0.701783 0.597081 0.229437
0.766357 0.566348 0.229437
0.761432 0.489643 0.218708
0.847079 0.459110 0.218708
0.000000 0.647472 0.110395
0.239595 0.659353 0.167429
0.481156 0.659353 0.218708
0.610149 0.659353 0.229437
0.725825 0.659353 0.229437
0.831684 0.656407 0.229437
0.851417 0.603657 0.229437
0.849251 0.533469 0.218708
0.000000 0.132737 0.284083
0.000000 0.000000 0.284083
0.167429 0.000000 0.284083
0.292020 0.000000 0.284083
0.463620 0.000000 0.335031
0.622888 0.000000 0.383716
0.712588 0.000000 0.394777
0.797487 0.000000 0.410703
0.000000 0.267353 0.292020
0.151280 0.218708 0.292020
0.218708 0.151280 0.292020
0.347973 0.151280 0.292020
0.533469 0.151280 0.341576
0.635323 0.151280 0.360361
0.725825 0.151280 0.372258
0.813660 0.151280 0.383716
0.000000 0.360361 0.284083
0.167429 0.328330 0.292020
0.284083 0.284083 0.292020
0.394777 0.239595 0.292020
0.548374 0.249261 0.328330
0.644460 0.249261 0.335031
0.738778 0.249261 0.347973
0.824981 0.249261 0.366368
0.000000 0.360361 0.229437
0.167429 0.360361 0.249261
0.284083 0.366368 0.275870
0.449927 0.321460 0.267353
0.555647 0.321460 0.292020
0.653445 0.328330 0.307164
0.746421 0.328330 0.328330
0.836118 0.328330 0.341576
0.000000 0.435714 0.207307
0.167429 0.440513 0.229437
0.292020 0.445250 0.249261
0.449927 0.449927 0.275870
0.562808 0.410703 0.275870
0.656407 0.366368 0.267353
0.746421 0.335031 0.267353
0.833905 0.328330 0.275870
0.000000 0.510125 0.195098
0.167429 0.518046 0.218708
0.292020 0.521953 0.229437
0.485422 0.525825 0.275870
0.629142 0.529664 0.275870
0.668099 0.463620 0.275870
0.756468 0.430851 0.275870
0.842715 0.400170 0.275870
0.000000 0.580248 0.181896
0.167429 0.587051 0.207307
0.307164 0.593760 0.218708
0.521953 0.597081 0.275870
0.653445 0.597081 0.275870
0.768805 0.593760 0.275870
0.763899 0.514104 0.275870
0.847079 0.481156 0.275870
0.000000 0.650467 0.167429
0.167429 0.656407 0.181896
0.347973 0.659353 0.218708
0.555647 0.659353 0.275870
0.676709 0.659353 0.275870
0.790433 0.656407 0.275870
0.853576 0.629142 0.275870
0.851417 0.555647 0.275870
0.000000 0.151280 0.335031
0.000000 0.000000 0.328330
0.132737 0.000000 0.328330
0.258497 0.000000 0.335031
0.360361 0.000000 0.335031
0.521953 0.000000 0.383716
0.673853 0.000000 0.425921
0.799821 0.000000 0.463620
0.000000 0.292020 0.341576
0.151280 0.239595 0.341576
0.181896 0.151280 0.335031
0.307164 0.151280 0.341576
0.420922 0.151280 0.341576
0.587051 0.151280 0.389294
0.728438 0.151280 0.425921
0.815939 0.151280 0.440513
0.000000 0.400170 0.341576
0.167429 0.354232 0.347973
0.284083 0.307164 0.341576
0.335031 0.239595 0.341576
0.463620 0.239595 0.347973
0.644460 0.249261 0.394777
0.738778 0.249261 0.405478
0.827222 0.249261 0.420922
0.000000 0.440513 0.314409
0.167429 0.445250 0.341576
0.292020 0.415850 0.347973
0.394777 0.360361 0.347973
0.506108 0.321460 0.347973
0.656407 0.328330 0.378039
0.748948 0.328330 0.389294
0.838324 0.328330 0.400170
0.000000 0.435714 0.258497
0.167429 0.440513 0.292020
0.292020 0.445250 0.307164
0.400170 0.449927 0.328330
0.562808 0.400170 0.314409
0.662284 0.400170 0.341576
0.756468 0.400170 0.360361
0.844901 0.400170 0.372258
0.000000 0.510125 0.249261
0.167429 0.518046 0.275870
0.292020 0.521953 0.292020
0.400170 0.525825 0.299707
0.555647 0.529664 0.321460
0.670983 0.489643 0.321460
0.758955 0.440513 0.321460
0.844901 0.410703 0.321460
0.000000 0.583662 0.229437
0.167429 0.590417 0.258497
0.292020 0.593760 0.275870
0.405478 0.597081 0.284083
0.590417 0.597081 0.321460
0.725825 0.597081 0.321460
0.763899 0.537242 0.321460
0.849251 0.497957 0.321460
0.000000 0.650467 0.218708
0.167429 0.656407 0.239595
0.299707 0.659353 0.258497
0.430851 0.659353 0.275870
0.619733 0.659353 0.321460
0.743884 0.656407 0.321460
0.855728 0.656407 0.321460
0.851417 0.580248 0.321460
0.000000 0.181896 0.378039
0.000000 0.000000 0.372258
0.110395 0.000000 0.372258
0.218708 0.000000 0.378039
0.328330 0.000000 0.378039
0.425921 0.000000 0.378039
0.576811 0.000000 0.425921
0.720565 0.000000 0.468078
0.000000 0.314409 0.383716
0.151280 0.267353 0.383716
0.151280 0.151280 0.383716
0.267353 0.151280 0.383716
0.378039 0.151280 0.383716
0.485422 0.151280 0.389294
0.641432 0.151280 0.435714
0.795144 0.151280 0.476845
0.000000 0.420922 0.389294
0.167429 0.372258 0.389294
0.284083 0.328330 0.389294
0.299707 0.239595 0.389294
0.415850 0.239595 0.389294
0.529664 0.239595 0.394777
0.696304 0.249261 0.440513
0.829457 0.249261 0.472486
0.000000 0.514104 0.394777
0.167429 0.472486 0.394777
0.292020 0.430851 0.394777
0.394777 0.383716 0.394777
0.445250 0.321460 0.394777
0.573349 0.321460 0.394777
0.748948 0.328330 0.445250
0.840523 0.328330 0.454547
0.000000 0.514104 0.341576
0.167429 0.518046 0.372258
0.292020 0.525825 0.400170
0.400170 0.493821 0.400170
0.493821 0.440513 0.400170
0.610149 0.400170 0.400170
0.758955 0.400170 0.425921
0.847079 0.400170 0.435714
0.000000 0.514104 0.299707
0.167429 0.518046 0.321460
0.292020 0.521953 0.341576
0.400170 0.525825 0.360361
0.502052 0.529664 0.378039
0.670983 0.468078 0.366368
0.761432 0.468078 0.389294
0.849251 0.468078 0.400170
0.000000 0.583662 0.284083
0.167429 0.590417 0.307164
0.292020 0.593760 0.328330
0.405478 0.597081 0.341576
0.506108 0.597081 0.347973
0.650467 0.597081 0.360361
0.766357 0.555647 0.360361
0.849251 0.506108 0.360361
0.000000 0.653445 0.267353
0.167429 0.659353 0.292020
0.299707 0.659353 0.307164
0.410703 0.659353 0.321460
0.510125 0.659353 0.328330
0.682376 0.656407 0.360361
0.813660 0.656407 0.360361
0.853576 0.600380 0.360361
0.000000 0.195098 0.420922
0.000000 0.000000 0.415850
0.080560 0.000000 0.415850
0.195098 0.000000 0.415850
0.299707 0.000000 0.420922
0.394777 0.000000 0.420922
0.485422 0.000000 0.420922
0.629142 0.000000 0.468078
0.000000 0.335031 0.430851
0.151280 0.284083 0.430851
0.151280 0.181896 0.425921
0.239595 0.151280 0.425921
0.347973 0.151280 0.425921
0.449927 0.151280 0.430851
0.544693 0.151280 0.430851
0.696304 0.151280 0.476845
0.000000 0.440513 0.435714
0.167429 0.394777 0.435714
0.284083 0.347973 0.435714
0.275870 0.249261 0.430851
0.378039 0.239595 0.430851
0.489643 0.239595 0.435714
0.593760 0.239595 0.435714
0.751465 0.249261 0.481156
0.000000 0.533469 0.440513
0.167429 0.489643 0.440513
0.292020 0.449927 0.440513
0.394777 0.405478 0.440513
0.405478 0.321460 0.435714
0.521953 0.321460 0.440513
0.635323 0.328330 0.440513
0.799821 0.328330 0.489643
0.000000 0.587051 0.425921
0.167429 0.580248 0.445250
0.292020 0.544693 0.445250
0.400170 0.510125 0.445250
0.493821 0.459110 0.445250
0.544693 0.394777 0.445250
0.673853 0.400170 0.445250
0.847079 0.400170 0.489643
0.000000 0.587051 0.372258
0.167429 0.593760 0.405478
0.299707 0.597081 0.425921
0.410703 0.597081 0.445250
0.506108 0.562808 0.449927
0.590417 0.510125 0.449927
0.707210 0.468078 0.449927
0.849251 0.468078 0.468078
0.000000 0.583662 0.328330
0.167429 0.590417 0.354232
0.299707 0.597081 0.378039
0.410703 0.597081 0.394777
0.506108 0.597081 0.405478
0.597081 0.597081 0.420922
0.766357 0.529664 0.405478
0.851417 0.529664 0.430851
0.000000 0.653445 0.314409
0.167429 0.659353 0.341576
0.299707 0.659353 0.360361
0.415850 0.659353 0.372258
0.510125 0.659353 0.383716
0.600380 0.659353 0.389294
0.736210 0.656407 0.400170
0.853576 0.616558 0.400170
0.000000 0.218708 0.463620
0.000000 0.080560 0.454547
0.000000 0.000000 0.454547
0.167429 0.000000 0.454547
0.267353 0.000000 0.459110
0.366368 0.000000 0.459110
0.454547 0.000000 0.463620
0.540983 0.000000 0.463620
0.000000 0.354232 0.472486
0.151280 0.307164 0.472486
0.151280 0.195098 0.468078
0.207307 0.151280 0.463620
0.314409 0.151280 0.468078
0.415850 0.151280 0.468078
0.514104 0.151280 0.472486
0.603657 0.151280 0.472486
0.000000 0.463620 0.481156
0.167429 0.415850 0.481156
0.284083 0.372258 0.481156
0.275870 0.275870 0.472486
0.347973 0.239595 0.472486
0.454547 0.239595 0.476845
0.555647 0.239595 0.476845
0.653445 0.239595 0.481156
0.000000 0.555647 0.485422
0.167429 0.510125 0.485422
0.292020 0.472486 0.485422
0.394777 0.430851 0.485422
0.389294 0.335031 0.481156
0.485422 0.321460 0.481156
0.593760 0.321460 0.485422
0.696304 0.328330 0.485422
0.000000 0.641432 0.489643
0.167429 0.600380 0.489643
0.292020 0.562808 0.489643
0.400170 0.525825 0.489643
0.497957 0.481156 0.489643
0.502052 0.394777 0.485422
0.622888 0.400170 0.489643
0.736210 0.400170 0.489643
0.000000 0.656407 0.449927
0.181896 0.659353 0.481156
0.307164 0.641432 0.489643
0.410703 0.610149 0.489643
0.506108 0.573349 0.489643
0.590417 0.529664 0.489643
0.638386 0.468078 0.489643
0.766357 0.468078 0.489643
0.000000 0.656407 0.405478
0.167429 0.659353 0.430851
0.307164 0.659353 0.449927
0.415850 0.659353 0.468078
0.514104 0.659353 0.489643
0.600380 0.626025 0.489643
0.676709 0.569861 0.489643
0.795144 0.529664 0.489643
0.000000 0.653445 0.360361
0.167429 0.659353 0.389294
0.307164 0.659353 0.405478
0.415850 0.659353 0.420922
0.514104 0.659353 0.435714
0.600380 0.656407 0.449927
0.682376 0.656407 0.459110
0.853576 0.587051 0.440513
